src/assets/svg/icons/fa/nuevos/classic/light/truck-clock classic light.svg

<svg xmlns="http://www.w3.org/2000/svg" viewBox="0 0 640 512"><!--! Font Awesome Pro 6.4.0 by @fontawesome - https://fontawesome.com License - https://fontawesome.com/license (Commercial License) Copyright 2023 Fonticons, Inc. --><path d="M64 32C46.3 32 32 46.3 32 64V352c0 17.7 14.3 32 32 32h5.5c13.2-37.3 48.7-64 90.5-64s77.4 26.7 90.5 64H384V64c0-17.7-14.3-32-32-32H64zm0 384c-35.3 0-64-28.7-64-64V64C0 28.7 28.7 0 64 0H352c35.3 0 64 28.7 64 64V96h65.3c14 0 27.3 6.1 36.4 16.8l78.7 91.8c7.5 8.7 11.6 19.8 11.6 31.2V384h16c8.8 0 16 7.2 16 16s-7.2 16-16 16H576c0 53-43 96-96 96s-96-43-96-96H256c0 53-43 96-96 96s-96-43-96-96zM416 128v96H570.9l-77.5-90.4c-3-3.5-7.5-5.6-12.1-5.6H416zm0 128v88.4c17-15.2 39.4-24.4 64-24.4c41.8 0 77.4 26.7 90.5 64H576V256H416zM224 416A64 64 0 1 0 96 416a64 64 0 1 0 128 0zm256 64a64 64 0 1 0 0-128 64 64 0 1 0 0 128zM208 256a80 80 0 1 0 0-160 80 80 0 1 0 0 160zm0-192a112 112 0 1 1 0 224 112 112 0 1 1 0-224zm16 64v32h16c8.8 0 16 7.2 16 16s-7.2 16-16 16H208c-8.8 0-16-7.2-16-16V128c0-8.8 7.2-16 16-16s16 7.2 16 16z"/></svg>

<svg xmlns="http://www.w3.org/2000/svg" viewBox="0 0 640 512"><path d="M224 160H240C248.8 160 256 167.2 256 176C256 184.8 248.8 192 240 192H208C199.2 192 192 184.8 192 176V128C192 119.2 199.2 112 208 112C216.8 112 224 119.2 224 128V160zM96 176C96 114.1 146.1 64 208 64C269.9 64 320 114.1 320 176C320 237.9 269.9 288 208 288C146.1 288 96 237.9 96 176zM208 256C252.2 256 288 220.2 288 176C288 131.8 252.2 96 208 96C163.8 96 128 131.8 128 176C128 220.2 163.8 256 208 256zM64 416C28.65 416 0 387.3 0 352V64C0 28.65 28.65 0 64 0H352C387.3 0 416 28.65 416 64V96H481.3C495.3 96 508.6 102.1 517.7 112.8L596.4 204.6C603.9 213.3 608 224.4 608 235.8V384H624C632.8 384 640 391.2 640 400C640 408.8 632.8 416 624 416H576C576 469 533 512 480 512C426.1 512 384 469 384 416H255.1C255.1 469 213 512 159.1 512C106.1 512 63.1 469 63.1 416H64zM32 64V352C32 369.7 46.33 384 64 384H69.46C82.64 346.7 118.2 320 160 320C201.8 320 237.4 346.7 250.5 384H384V64C384 46.33 369.7 32 352 32H64C46.33 32 32 46.33 32 64zM416 224H570.9L493.4 133.6C490.4 130 485.1 128 481.3 128H416V224zM416 256V344.4C432.1 329.2 455.4 320 480 320C521.8 320 557.4 346.7 570.5 384H576V256H416zM160 352C124.7 352 96 380.7 96 416C96 451.3 124.7 480 160 480C195.3 480 224 451.3 224 416C224 380.7 195.3 352 160 352zM480 480C515.3 480 544 451.3 544 416C544 380.7 515.3 352 480 352C444.7 352 416 380.7 416 416C416 451.3 444.7 480 480 480z"/></svg>
